symbols/web/sports_bar/materialsymbolssharp/sports_bar_fill1_48px.svg

<svg xmlns="http://www.w3.org/2000/svg" height="48" width="48"><path d="M12.5 42V24.4q-2.6-.7-4.55-2.65Q6 19.8 6 17q0-2.65 1.525-4.7 1.525-2.05 3.925-2.85 1.15-2.4 3.425-3.9T20 4.05q1.75 0 3.275.6t2.775 1.6q.5-.1.95-.175Q27.45 6 28 6q3.3 0 5.65 2.35Q36 10.7 36 14q0 1.1-.45 2.2T34.4 18H42v20h-8.5v4ZM9 17q0 1.9 1.55 3.2 1.55 1.3 3.45 1.3 1.6 0 2.9-.875 1.3-.875 2.65-2.525 1.15-1.4 2.75-2.5t3.7-1.1h7q0-2.25-1.325-3.875T28 9q-.9 0-1.775.275l-.875.275-.95-.8q-.9-.8-2.05-1.25-1.15-.45-2.35-.45-1.75 0-3.35.9t-2.35 2.5l-.7 1.5-1.6.55q-1.3.45-2.15 1.775Q9 15.6 9 17Zm24.5 18H39V21h-5.5Z"/></svg>

<svg xmlns="http://www.w3.org/2000/svg" height="48" width="48"><path d="M12.5 42V24.4Q9.9 23.7 7.95 21.75Q6 19.8 6 17Q6 14.35 7.525 12.3Q9.05 10.25 11.45 9.45Q12.6 7.05 14.875 5.55Q17.15 4.05 20 4.05Q21.75 4.05 23.275 4.65Q24.8 5.25 26.05 6.25Q26.55 6.15 27 6.075Q27.45 6 28 6Q31.3 6 33.65 8.35Q36 10.7 36 14Q36 15.1 35.55 16.2Q35.1 17.3 34.4 18H42V38H33.5V42ZM9 17Q9 18.9 10.55 20.2Q12.1 21.5 14 21.5Q15.6 21.5 16.9 20.625Q18.2 19.75 19.55 18.1Q20.7 16.7 22.3 15.6Q23.9 14.5 26 14.5H33Q33 12.25 31.675 10.625Q30.35 9 28 9Q27.1 9 26.225 9.275Q25.35 9.55 25.35 9.55L24.4 8.75Q23.5 7.95 22.35 7.5Q21.2 7.05 20 7.05Q18.25 7.05 16.65 7.95Q15.05 8.85 14.3 10.45L13.6 11.95L12 12.5Q10.7 12.95 9.85 14.275Q9 15.6 9 17ZM33.5 35H39V21H33.5Z"/></svg>
